X: 11016
T: CHARLIE FENTON'S
C: Bob McQuillen 16 April 96
B: Bob's Note Book 11 #16
%R: reel
Z: 2020 John Chambers <jc:trillian.mit.edu>
M: C
L: 1/8
K: C
|:G2AG EGce | g2ag egg2 | agec dced | cdec dcAc |
| G2AG EGce | g2ag eceg | agec dcAc | GAcd eccA :|
|:GAcd e2ag | egec AGcA | GAce g2ag | egec decA |
| GAcd e2cd | ecdc Acc2 | e2ce gecA | GAce dcc2 :|
%%begintext align
%% It's always
%% a pleasure when I get to play for San Francisco's
%% Charlie Fenton. He's a most hospitable host
%% at the Monte Toyon dance camp, and with
%% his great calling he gives everybody a
%% good time. Cheers, Charlie!
%%endtext

%%sep 1 1 500

%%sep 1 1 500

